X: 32753
T: Polska Efter Jöns Persson
R: waltz
M: 3/4
K: Dminor
|:A2d2 d2ed cdcB|A2d2 d2^cd [e4]|
A2f2 f2ed f2e2|d2^cd efed c2A2|
A2d2 d2ed cdcB|A2d2 d2^cd [e4e4]|
A2f2 f2ed f2af|ege^c d8:|
|:D2a2 a2=ba gbge|fefg a^ga^c d2[e2e2]|
[e2]f2 f2ed f2e2|d2^cd efed^c2A2|
A2a2 a2=ba gbge|fefg a^ga^c d2[e2e2]|
[e2]f2 f2ed f2af|ege^c [D8d8]:|

